symbols/web/elevator/materialsymbolssharp/elevator_wght200fill1_40px.svg

<svg xmlns="http://www.w3.org/2000/svg" height="40" width="40"><path d="M13.125 29.292h3.333v-6.5h1.667v-6.875h-6.667v6.875h1.667Zm1.667-14.834q.791 0 1.333-.541.542-.542.542-1.334 0-.75-.542-1.291-.542-.542-1.333-.542-.75 0-1.292.542-.542.541-.542 1.291 0 .792.542 1.334.542.541 1.292.541Zm8 2.917h5.333l-2.667-4.25Zm2.666 9.5 2.667-4.25h-5.333ZM6.667 33.333V6.667h26.666v26.666Z"/></svg>

<svg xmlns="http://www.w3.org/2000/svg" height="40" width="40"><path d="M13.125 29.292H16.458V22.792H18.125V15.917H11.458V22.792H13.125ZM14.792 14.458Q15.583 14.458 16.125 13.917Q16.667 13.375 16.667 12.583Q16.667 11.833 16.125 11.292Q15.583 10.75 14.792 10.75Q14.042 10.75 13.5 11.292Q12.958 11.833 12.958 12.583Q12.958 13.375 13.5 13.917Q14.042 14.458 14.792 14.458ZM22.792 17.375H28.125L25.458 13.125ZM25.458 26.875 28.125 22.625H22.792ZM6.667 33.333V6.667H33.333V33.333Z"/></svg>
